public/img/field-17.svg

<svg width="79" height="64" fill="none" xmlns="http://www.w3.org/2000/svg"><path fill="#715F7A" d="M79 38v10H41V38z"/><path d="M29 23h6v2h-6v-2z" fill="#5A2E91"/><path d="M58 27h-1v-3c0-1.654-1.346-3-3-3s-3 1.346-3 3v3.184A2.996 2.996 0 0049 30v2.343c0 1.336.521 2.592 1.465 3.536l.464.464-.76 4.559c-2.482-5.475-7.382-9.452-13.349-10.746l-.4-1.597a7.01 7.01 0 004.5-5.56H41c2.206 0 4-1.794 4-4 0-.816-.248-1.573-.668-2.206l.319-1.275c.232-.927.35-1.88.35-2.834C45 6.241 39.759 1 33.315 1h-2.631C24.241 1 19 6.241 19 12.685c0 .954.117 1.907.35 2.834l.319 1.276A3.966 3.966 0 0019 19c0 2.206 1.794 4 4 4h.08a7.01 7.01 0 004.5 5.56l-.395 1.578C19.055 31.635 13 38.815 13 47.143V52c0 6.065 4.935 11 11 11h9a3.995 3.995 0 003.934-3.35c1.18-.423 2.411-.65 3.671-.65H45v-2.237l1.394 1.672A7.112 7.112 0 0051.871 61 7.137 7.137 0 0059 53.871V36.414l.535-.535A4.969 4.969 0 0061 32.343V30c0-1.654-1.346-3-3-3zm-4-4a1 1 0 011 1v3.184a2.989 2.989 0 00-1 .596 2.972 2.972 0 00-1-.596V24a1 1 0 011-1zM32.869 55a2.858 2.858 0 00-2.724-2 2.84 2.84 0 00-2.553 1.578l-.21.422H25V45h2.395c1.985 0 3.911.541 5.605 1.558V55h-.131zm-2.715-21.805l-2.727 2.181-1.189-2.973a15.36 15.36 0 011.615-.359l2.301 1.151zM31.755 39h.491l1.645 5.758a12.854 12.854 0 00-3.389-1.373L31.755 39zm.627-2h-.764l-.862-1.724L32 34.281l1.244.995L32.382 37zm1.464-3.805l2.288-1.144c.546.11 1.081.246 1.607.404l-1.169 2.921-2.726-2.181zM39 17c0 1.103-.897 2-2 2s-2-.897-2-2 .897-2 2-2 2 .897 2 2zm2 4v-4c1.103 0 2 .897 2 2s-.897 2-2 2zM30.685 3h2.631C38.655 3 43 7.345 43 12.685c0 .79-.098 1.581-.289 2.35l-.08.321A3.958 3.958 0 0041 15h-.049c-.245-2.277-2.013-4.141-4.33-4.43l-.528-.066A3.537 3.537 0 0133 7h-2a5.538 5.538 0 004.844 5.488l.528.066c.491.062.936.249 1.322.515A4.071 4.071 0 0037 13c-1.859 0-3.411 1.279-3.858 3h-2.284c-.447-1.721-1.999-3-3.858-3-.713 0-1.372.203-1.953.53a2.991 2.991 0 012.85-2.52 7.73 7.73 0 002.548 2.822l1.109-1.664A5.726 5.726 0 0129 7.395V7h-2v.395c0 .575.073 1.138.195 1.687C24.822 9.469 23 11.519 23 14v1c-.582 0-1.131.131-1.631.356l-.08-.321a9.762 9.762 0 01-.289-2.35C21 7.345 25.345 3 30.685 3zM27 15c1.103 0 2 .897 2 2s-.897 2-2 2-2-.897-2-2 .897-2 2-2zm-6 4c0-1.103.897-2 2-2v4c-1.103 0-2-.897-2-2zm4 3v-1.556A3.959 3.959 0 0027 21c1.859 0 3.411-1.279 3.858-3h2.284c.447 1.721 1.999 3 3.858 3 .732 0 1.409-.212 2-.556V22c0 2.757-2.243 5-5 5h-4c-2.757 0-5-2.243-5-5zm5 7h4c.156 0 .31-.013.463-.023l.372 1.487L32 31.882l-2.835-1.418.372-1.487c.153.01.307.023.463.023zM15 52v-4.857c0-6.223 3.823-11.726 9.347-14.083l2.226 5.564 2.587-2.069.773 1.545-1.416 4.955A12.711 12.711 0 0027.395 43H23v11.816A2.996 2.996 0 0121 52V41h-2v11c0 2.757 2.243 5 5 5h3v4h-3c-4.963 0-9-4.037-9-9zm18 9h-4v-4.764l.382-.764a.849.849 0 01.764-.472c.47 0 .854.384.854.854V57h2c1.103 0 2 .897 2 2s-.897 2-2 2zm10-4h-2.395c-1.324 0-2.621.203-3.872.598A3.998 3.998 0 0035 55.556v-8.998A10.866 10.866 0 0140.605 45H43v12zm8.871 2a5.115 5.115 0 01-3.94-1.846L45 53.637V43h-4.395c-1.682 0-3.328.33-4.864.956l-1.673-5.857.773-1.545 2.587 2.069 2.192-5.479a17.03 17.03 0 019.575 10.864l.291.989-1.473 8.839 1.973.328L52.847 37H57v16.871A5.135 5.135 0 0151.871 59zm6.25-24.535l-.535.535h-5.172l-.535-.535A2.984 2.984 0 0151 32.343V30a1 1 0 012 0c0 1.654 1.346 3 3 3h2.929a2.988 2.988 0 01-.808 1.465zM59 31h-3a1 1 0 010-2h2a1 1 0 011 1v1z" fill="#5A2E91"/></svg>

<svg width="79" height="64" viewBox="0 0 79 64" fill="none" xmlns="http://www.w3.org/2000/svg">
<rect x="79" y="38" width="10" height="38" transform="rotate(90 79 38)" fill="#715F7A"/>
<path d="M29 23H35V25H29V23Z" fill="#5A2E91"/>
<path d="M58 27H57V24C57 22.346 55.654 21 54 21C52.346 21 51 22.346 51 24V27.184C49.839 27.598 49 28.698 49 30V32.343C49 33.679 49.521 34.935 50.465 35.879L50.929 36.343L50.169 40.902C47.687 35.427 42.787 31.45 36.82 30.156L36.42 28.559C38.787 27.683 40.55 25.566 40.92 22.999H41C43.206 22.999 45 21.205 45 18.999C45 18.183 44.752 17.426 44.332 16.793L44.651 15.518C44.883 14.591 45.001 13.638 45.001 12.684C45 6.241 39.759 1 33.315 1H30.684C24.241 1 19 6.241 19 12.685C19 13.639 19.117 14.592 19.35 15.519L19.669 16.795C19.248 17.427 19 18.185 19 19C19 21.206 20.794 23 23 23H23.08C23.45 25.567 25.213 27.683 27.58 28.56L27.185 30.138C19.055 31.635 13 38.815 13 47.143V52C13 58.065 17.935 63 24 63H33C34.984 63 36.622 61.546 36.934 59.65C38.114 59.227 39.345 59 40.605 59H45V56.763L46.394 58.435C47.753 60.065 49.749 61 51.871 61C55.802 61 59 57.802 59 53.871V36.414L59.535 35.879C60.479 34.935 61 33.679 61 32.343V30C61 28.346 59.654 27 58 27ZM54 23C54.552 23 55 23.448 55 24V27.184C54.626 27.317 54.289 27.52 54 27.78C53.711 27.519 53.374 27.317 53 27.184V24C53 23.448 53.448 23 54 23ZM32.869 55C32.506 53.842 31.422 53 30.145 53C29.057 53 28.08 53.604 27.592 54.578L27.382 55H25V45H27.395C29.38 45 31.306 45.541 33 46.558V55H32.869ZM30.154 33.195L27.427 35.376L26.238 32.403C26.766 32.257 27.303 32.134 27.853 32.044L30.154 33.195ZM31.755 39H32.246L33.891 44.758C32.827 44.137 31.687 43.679 30.502 43.385L31.755 39ZM32.382 37H31.618L30.756 35.276L32 34.281L33.244 35.276L32.382 37ZM33.846 33.195L36.134 32.051C36.68 32.161 37.215 32.297 37.741 32.455L36.572 35.376L33.846 33.195ZM39 17C39 18.103 38.103 19 37 19C35.897 19 35 18.103 35 17C35 15.897 35.897 15 37 15C38.103 15 39 15.897 39 17ZM41 21V17C42.103 17 43 17.897 43 19C43 20.103 42.103 21 41 21ZM30.685 3H33.316C38.655 3 43 7.345 43 12.685C43 13.475 42.902 14.266 42.711 15.035L42.631 15.356C42.131 15.131 41.582 15 41 15H40.951C40.706 12.723 38.938 10.859 36.621 10.57L36.093 10.504C34.329 10.283 33 8.777 33 7H31C31 9.784 33.083 12.144 35.844 12.488L36.372 12.554C36.863 12.616 37.308 12.803 37.694 13.069C37.467 13.03 37.238 13 37 13C35.141 13 33.589 14.279 33.142 16H30.858C30.411 14.279 28.859 13 27 13C26.287 13 25.628 13.203 25.047 13.53C25.269 12.133 26.45 11.06 27.897 11.01C28.489 12.13 29.355 13.105 30.445 13.832L31.554 12.168C29.955 11.102 29 9.317 29 7.395V7H27V7.395C27 7.97 27.073 8.533 27.195 9.082C24.822 9.469 23 11.519 23 14V15C22.418 15 21.869 15.131 21.369 15.356L21.289 15.035C21.098 14.266 21 13.475 21 12.685C21 7.345 25.345 3 30.685 3ZM27 15C28.103 15 29 15.897 29 17C29 18.103 28.103 19 27 19C25.897 19 25 18.103 25 17C25 15.897 25.897 15 27 15ZM21 19C21 17.897 21.897 17 23 17V21C21.897 21 21 20.103 21 19ZM25 22V20.444C25.591 20.788 26.268 21 27 21C28.859 21 30.411 19.721 30.858 18H33.142C33.589 19.721 35.141 21 37 21C37.732 21 38.409 20.788 39 20.444V22C39 24.757 36.757 27 34 27H30C27.243 27 25 24.757 25 22ZM30 29H34C34.156 29 34.31 28.987 34.463 28.977L34.835 30.464L32 31.882L29.165 30.464L29.537 28.977C29.69 28.987 29.844 29 30 29ZM15 52V47.143C15 40.92 18.823 35.417 24.347 33.06L26.573 38.624L29.16 36.555L29.933 38.1L28.517 43.055C28.144 43.022 27.771 43 27.395 43H23V54.816C21.839 54.402 21 53.302 21 52V41H19V52C19 54.757 21.243 57 24 57H27V61H24C19.037 61 15 56.963 15 52ZM33 61H29V56.236L29.382 55.472C29.527 55.181 29.82 55 30.146 55C30.616 55 31 55.384 31 55.854V57H33C34.103 57 35 57.897 35 59C35 60.103 34.103 61 33 61ZM43 57H40.605C39.281 57 37.984 57.203 36.733 57.598C36.407 56.732 35.79 56.017 35 55.556V46.558C36.695 45.541 38.62 45 40.605 45H43V57ZM51.871 59C50.345 59 48.908 58.327 47.931 57.154L45 53.637V43H40.605C38.923 43 37.277 43.33 35.741 43.956L34.068 38.099L34.841 36.554L37.428 38.623L39.62 33.144C44.211 35.138 47.738 39.053 49.195 44.008L49.486 44.997L48.013 53.836L49.986 54.164L52.847 37H57V53.871C57 56.699 54.699 59 51.871 59ZM58.121 34.465L57.586 35H52.414L51.879 34.465C51.313 33.898 51 33.145 51 32.343V30C51 29.448 51.448 29 52 29C52.552 29 53 29.448 53 30C53 31.654 54.346 33 56 33H58.929C58.806 33.551 58.529 34.057 58.121 34.465ZM59 31H56C55.448 31 55 30.552 55 30C55 29.448 55.448 29 56 29H58C58.552 29 59 29.448 59 30V31Z" fill="#5A2E91"/>
</svg>
